svg/fluentui-system-icons/ic_fluent_window_arrow_up_20_filled.svg

<svg width="20" height="20" viewBox="0 0 20 20" fill="none" xmlns="http://www.w3.org/2000/svg">
<path d="M5.75293 3.00293C4.23415 3.00293 3.00293 4.23415 3.00293 5.75293V14.2529C3.00293 15.7717 4.23415 17.0029 5.75293 17.0029H9.60105C9.36278 16.5374 9.1889 16.0335 9.09117 15.5029H5.75293C5.06257 15.5029 4.50293 14.9433 4.50293 14.2529V7.00031H15.5029V9.09153C16.0335 9.18929 16.5374 9.3632 17.0029 9.60151V5.75293C17.0029 4.23415 15.7717 3.00293 14.2529 3.00293H5.75293ZM14.5 19.0003C16.9853 19.0003 19 16.9856 19 14.5003C19 12.015 16.9853 10.0003 14.5 10.0003C12.0147 10.0003 10 12.015 10 14.5003C10 16.9856 12.0147 19.0003 14.5 19.0003ZM16.8535 14.1468C17.0488 14.3421 17.0488 14.6587 16.8535 14.8539C16.6583 15.0492 16.3417 15.0492 16.1464 14.8539L15 13.7075L15 16.5004C15 16.7765 14.7761 17.0004 14.5 17.0004C14.2238 17.0004 14 16.7765 14 16.5004V13.7075L12.8535 14.8539C12.6583 15.0492 12.3417 15.0492 12.1464 14.8539C11.9512 14.6587 11.9512 14.3421 12.1464 14.1468L14.1464 12.1468C14.1944 12.0989 14.2496 12.0627 14.3086 12.0383C14.3667 12.0142 14.4303 12.0008 14.497 12.0004L14.5 12.0004L14.503 12.0004C14.5697 12.0008 14.6333 12.0142 14.6914 12.0383C14.7495 12.0623 14.804 12.0978 14.8514 12.1447L14.8539 12.1472L16.8535 14.1468Z" fill="#212121"/>
</svg>

<svg xmlns="http://www.w3.org/2000/svg" width="20" height="20"><path d="M5.753 3.003a2.75 2.75 0 0 0-2.75 2.75v8.5a2.75 2.75 0 0 0 2.75 2.75H9.6a5.46 5.46 0 0 1-.51-1.5H5.753c-.69 0-1.25-.56-1.25-1.25V7h11v2.092a5.46 5.46 0 0 1 1.5.51v-3.85a2.75 2.75 0 0 0-2.75-2.75h-8.5ZM14.5 19a4.5 4.5 0 1 0 0-9 4.5 4.5 0 0 0 0 9Zm2.354-4.853a.5.5 0 1 1-.708.707L15 13.708V16.5a.5.5 0 0 1-1 0v-2.793l-1.146 1.147a.5.5 0 1 1-.708-.707l2-2a.5.5 0 0 1 .351-.147h.006a.498.498 0 0 1 .348.145l.003.002 2 2Z"/></svg>
